apps/128/simplescreenrecorder.svg

<svg enable-background="new 0 0 128 128" viewBox="0 0 128 128" xmlns="http://www.w3.org/2000/svg" xmlns:xlink="http://www.w3.org/1999/xlink"><linearGradient id="a" gradientUnits="userSpaceOnUse" x1="75.574676" x2="74.961417" y1="15.992326" y2="41.687871"><stop offset="0" stop-color="#f3f1f3"/><stop offset="1" stop-color="#dcdadc"/></linearGradient><filter id="b" color-interpolation-filters="sRGB" height="1.03831" width="1.033953" x="-.016976" y="-.019155"><feGaussianBlur stdDeviation=".80949148"/></filter><rect fill="#1a1a1a" fill-opacity=".488688" filter="url(#b)" height="101.42373" ry="3.525424" width="114.44067" x="6.542252" y="15.109272"/><rect fill="#fdfdfd" height="101.42373" ry="3.525424" width="114.44067" x="6.542252" y="15.109272"/><path d="m10.06922 15.109272c-1.95309 0-3.52734 1.572306-3.52734 3.525391v23.552738c20.05069-.06356 97.39424-.38393 114.4414-.45508v-23.097658c0-1.953085-1.5723-3.525391-3.52539-3.525391z" fill="url(#a)"/><g stroke-width=".4"><circle cx="25.10952" cy="28.877758" fill="#ff6159" r="6.716322" stroke="#e1453f"/><circle cx="46.600372" cy="28.877758" fill="#ffbe2f" r="6.716322" stroke="#dfa023"/><circle cx="68.091217" cy="28.877758" fill="#28ca40" r="6.716322" stroke="#1bac2c"/></g><path d="m32.615234 58.117188c-1.307114 0-2.359375 1.052254-2.359375 2.359374v36.027344c0 1.30713 1.052261 2.359375 2.359375 2.359375h45.615235c1.307116 0 2.359375-1.052245 2.359375-2.359375v-10.210937l2.384765 1.5625 11.033203 7.226562c1.44958.94928 3.262189-.237598 3.261719-2.136719v-14.455078-14.455078c-.00071-1.89835-1.812738-3.085609-3.261719-2.136718l-11.033203 7.228515-2.384765 1.560547v-10.210938c0-1.307119-1.052259-2.359374-2.359375-2.359374zm21.654297 6.761718a13.611806 13.611806 0 0 1 13.613281 13.611328 13.611806 13.611806 0 0 1 -13.613281 13.611328 13.611806 13.611806 0 0 1 -13.611328-13.611328 13.611806 13.611806 0 0 1 13.611328-13.611328z" fill="#cecece"/></svg>

<?xml version="1.0" encoding="UTF-8" standalone="no"?>
<!-- Generator: Adobe Illustrator 21.1.0, SVG Export Plug-In . SVG Version: 6.00 Build 0)  -->

<svg
   xmlns:dc="http://purl.org/dc/elements/1.1/"
   xmlns:cc="http://creativecommons.org/ns#"
   xmlns:rdf="http://www.w3.org/1999/02/22-rdf-syntax-ns#"
   xmlns:svg="http://www.w3.org/2000/svg"
   xmlns="http://www.w3.org/2000/svg"
   xmlns:xlink="http://www.w3.org/1999/xlink"
   xmlns:sodipodi="http://sodipodi.sourceforge.net/DTD/sodipodi-0.dtd"
   xmlns:inkscape="http://www.inkscape.org/namespaces/inkscape"
   version="1.0"
   id="Layer_1"
   x="0px"
   y="0px"
   viewBox="0 0 128 128"
   style="enable-background:new 0 0 128 128;"
   xml:space="preserve"
   sodipodi:docname="simplescreenrecorder.svg"
   inkscape:version="0.92.2pre0 (973e216, 2017-07-25)"><metadata
     id="metadata9"><rdf:RDF><cc:Work
         rdf:about=""><dc:format>image/svg+xml</dc:format><dc:type
           rdf:resource="http://purl.org/dc/dcmitype/StillImage" /><dc:title></dc:title></cc:Work></rdf:RDF></metadata><defs
     id="defs7"><linearGradient
       inkscape:collect="always"
       id="linearGradient838"><stop
         style="stop-color:#f3f1f3;stop-opacity:1;"
         offset="0"
         id="stop834" /><stop
         style="stop-color:#dcdadc;stop-opacity:1"
         offset="1"
         id="stop836" /></linearGradient><linearGradient
       inkscape:collect="always"
       xlink:href="#linearGradient838"
       id="linearGradient840"
       x1="69.516396"
       y1="87.581085"
       x2="68.903137"
       y2="113.27663"
       gradientUnits="userSpaceOnUse"
       gradientTransform="translate(6.05828,-71.588759)" /><filter
       inkscape:collect="always"
       style="color-interpolation-filters:sRGB"
       id="filter1044"
       x="-0.016976304"
       width="1.0339526"
       y="-0.019155079"
       height="1.0383102"><feGaussianBlur
         inkscape:collect="always"
         stdDeviation="0.80949148"
         id="feGaussianBlur1046" /></filter></defs><sodipodi:namedview
     pagecolor="#ffffff"
     bordercolor="#666666"
     borderopacity="1"
     objecttolerance="10"
     gridtolerance="10"
     guidetolerance="10"
     inkscape:pageopacity="0"
     inkscape:pageshadow="2"
     inkscape:window-width="1360"
     inkscape:window-height="740"
     id="namedview5"
     showgrid="false"
     inkscape:zoom="2.8284271"
     inkscape:cx="85.950793"
     inkscape:cy="38.564332"
     inkscape:window-x="0"
     inkscape:window-y="0"
     inkscape:window-maximized="1"
     inkscape:current-layer="Layer_1" /><rect
     style="opacity:1;fill:#1a1a1a;fill-opacity:0.48868779;filter:url(#filter1044)"
     ry="3.5254238"
     y="15.109272"
     x="6.5422516"
     height="101.42373"
     width="114.44067"
     id="rect890" /><rect
     id="rect22"
     width="114.44067"
     height="101.42373"
     x="6.5422516"
     y="15.109272"
     ry="3.5254238"
     style="opacity:1;fill:#fdfdfd;fill-opacity:1" /><path
     style="fill:url(#linearGradient840);fill-opacity:1;stroke:none;stroke-width:1px;stroke-linecap:butt;stroke-linejoin:miter;stroke-opacity:1"
     d="m 10.06922,15.109272 c -1.95309,0 -3.52734,1.572306 -3.52734,3.525391 v 23.552738 c 20.05069,-0.06356 97.39424,-0.38393 114.4414,-0.45508 V 18.634663 c 0,-1.953085 -1.5723,-3.525391 -3.52539,-3.525391 z"
     id="path829"
     inkscape:connector-curvature="0" /><g
     id="g851"
     transform="translate(-17.5)"><circle
       r="6.7163224"
       cy="28.877758"
       cx="42.60952"
       id="path842"
       style="opacity:1;fill:#ff6159;fill-opacity:1;stroke:#e1453f;stroke-width:0.40000001;stroke-miterlimit:4;stroke-dasharray:none;stroke-opacity:1" /><circle
       style="opacity:1;fill:#ffbe2f;fill-opacity:1;stroke:#dfa023;stroke-width:0.40000001;stroke-miterlimit:4;stroke-dasharray:none;stroke-opacity:1"
       id="circle844"
       cx="64.100372"
       cy="28.877758"
       r="6.7163224" /><circle
       r="6.7163224"
       cy="28.877758"
       cx="85.591217"
       id="circle846"
       style="opacity:1;fill:#28ca40;fill-opacity:1;stroke:#1bac2c;stroke-width:0.40000001;stroke-miterlimit:4;stroke-dasharray:none;stroke-opacity:1" /></g><path
     style="opacity:1;fill:#cecece;fill-opacity:1;stroke:none;stroke-width:3.11594343;stroke-miterlimit:4;stroke-dasharray:none;stroke-opacity:1"
     d="M 32.615234 58.117188 C 31.30812 58.117188 30.255859 59.169442 30.255859 60.476562 L 30.255859 96.503906 C 30.255859 97.811036 31.30812 98.863281 32.615234 98.863281 L 78.230469 98.863281 C 79.537585 98.863281 80.589844 97.811036 80.589844 96.503906 L 80.589844 86.292969 L 82.974609 87.855469 L 94.007812 95.082031 C 95.457392 96.031311 97.270001 94.844433 97.269531 92.945312 L 97.269531 78.490234 L 97.269531 64.035156 C 97.268821 62.136806 95.456793 60.949547 94.007812 61.898438 L 82.974609 69.126953 L 80.589844 70.6875 L 80.589844 60.476562 C 80.589844 59.169443 79.537585 58.117188 78.230469 58.117188 L 32.615234 58.117188 z M 54.269531 64.878906 A 13.611806 13.611806 0 0 1 67.882812 78.490234 A 13.611806 13.611806 0 0 1 54.269531 92.101562 A 13.611806 13.611806 0 0 1 40.658203 78.490234 A 13.611806 13.611806 0 0 1 54.269531 64.878906 z "
     id="rect1077" /></svg>
